X:1
T:Salem -- Hornpipe
R:hornpipe
C:P. S. Gilmore
B:Cole's 1000 Fiddle Tunes
Z:Bob Puckette <bpuckette:msn.com> 2003-3-8
M:2/4
L:1/16
K:G
vBA|.G2(G"4"A) BdGB|cd"4"ec dgGB|caBg AfG"4"e|Fdfe dcBA|
.G2(G"4"A) BdGB|cd"4"ec dgGB|cdef gdec|B2G2G2:|
|:(uBc)|dgBd GBdg|fage dfa"4"c'|"4"bgaf gedB|(c"4"e).A2 .A2(Bc)|
dgBd BGdg|fage dfac'|bgaf gedc|B2G2G2:|
